X:1     %Music
T:Will you go lassie
B:Singing Together, Summer 1979, BBC Publications
F:http://www.folkinfo.org/songs
Q:1/4=100     %Tempo
M:4/4     %Meter
L:1/8     %
K:E
E/F/ |G/G3/2 F3/2E/ C/E3/2-E
w:Oh the sum-mer time is com-ing, *
G/B/ | c3/2c/ c3/2B/ G/B3/2-B
w:And the leaves are sweet-ly bloom-ing, *
G/B/ |c2 BG (F/E3/2-)E 
w: And the wild moun-tain thyme_ *
F/G/ |A3/2G/ FE C/E3/2 E3/2C/ |B,3/2C/ E/E3/2 E2 
w:Grows a-round the bloom-ing hea-ther, Will ye go_ Lass-ie go, 
z G/B/ |c2 c3/2B/ G/B3/2-BG/B/ |c2 BG (F/E3/2)-E
w:And we'll all go to-get-her,_ To pluck wild moun-tain thyme_ *
F/G/ |A3/2G/ FE C/E3/2 E3/2C/ |B,3/2C/ E/E3/2 E2 |]
w:All a-round the bloom-ing hea-ther, Will ye go,_ Las-sie, go. 